!!!OTL: 1409. Vor dem Feldzuge.
!!!ODT: 1892
!!!ARE: Europa, Mitteleuropa, Deutschland, Hessen, Wetzlar, Schwalbach
!!!SCT: E1409
!!!TXL: @@DE
!!!YEM: Copyright 1995, estate of Helmut Schaffrath.
**kern	**text
*ICvox	*
*M3/4	*
*k[b-]	*
*F:	*
!LO:TX:a:t=Muthig.	!
!LO:TX:a:t=Mündl. aus Schwalbach (Kr. Wetʒlar). 1892.	!
{8c	Die
=1	=1
8.a	Trom-
16g	-mel
8.f	ruft
16e	und
8.d	ich
16c	muß
=2	=2
4c	fort,
4r	.
8r}	.
{8c	muß
=3	=3
8f	fol-
8c	-gen
8.f	dem
16c	Kom-
!LO:TUP:b	!
(12fL	-man-
12aJ	.
12cc)	-do-
=4	=4
4cc	-wort,
4r	.
8r}	.
{8cc	ver-
=5	=5
8.dd	-laſ-
16cc	-ſen
8.g	mei-
16b-	-nes
8.dd	Va-
16cc	-ters
=6	=6
4a	Haus,
4r	.
8r}	.
{8f	muß
=7	=7
8.e	in
16d	die
8.c	wei-
16dd	-te
8.cc	Welt
16b-	hin-
=8	=8
4a	-aus.
4r}	.
{4c	A-
=9	=9
2a	-de,
8aL	a-
8b-J	.
=10	=10
2cc}	-de,
{4b-	mein
=11	=11
8a	treu-
8f	-es
8dd	Lieb-
8cc	-chen,
8.b-L	a-
16gJ	.
=12	=12
2f	-de!
8r}	.
==	==
!!!AGN: Staende -, Soldaten - Lied, Krieg
!!!ONB: ESAC (Essen Associative Code) Database: ERK3
!!!AMT: simple triple
!!!AIN: vox
!!!EED: Helmut Schaffrath
!!!EEV: 1.0
!!!GTL: Staendelieder (Berufslieder). 1. Soldaten- und Kriegslieder. Soldatenlieder seit dem 30jaehr. Kriege.
!!!URL-scan: https://rosdok.uni-rostock.de/mcrviewer/recordIdentifier/rosdok_ppn745177999/iview2/phys_0277.iview2?x=-128.77276441889308&y=596.077741559362&scale=0.5870222003877485&rotation=0&layout=singlePageLayout
!!!ENC: Anna Maria Matuszewska
!!!EEV: 2024/12/31
*-	*-
